X:249
T:Munster Bacon
R:jig
Z:transcribed by Dave Marshall
M:6/8
K:D
|: ABA DFA | dfe d2c | ~B3 dAF | GFG EFG |
AFA d2c | ~B3 efg | faf gec |1 edc d3 :|2 edc dfg |
|: afd dfa | bge a2g | ~f3 ged | cAA A2G |
Fdd cee | dff efg | faf gec |1 edc dfg :|2 edc d3 |
